icons/op-italic-24.svg

<svg width="24" height="24" viewBox="0 0 24 24" fill="none" xmlns="http://www.w3.org/2000/svg">
<path d="M7 19.6235C7.58632 19.5608 7.9772 19.4667 8.20521 19.3098C8.56352 19.0588 8.85668 18.5569 9.08469 17.8039L12.2117 6.94902C12.3094 6.5098 12.4072 6.19608 12.4397 6.00784C12.4723 5.81961 12.5049 5.66275 12.5049 5.47451C12.5049 5.09804 12.3746 4.81569 12.114 4.65882C11.8208 4.50196 11.3648 4.40784 10.6808 4.37647V4H17V4.37647C16.3485 4.47059 15.8925 4.59608 15.6319 4.78431C15.3713 4.97255 15.1433 5.44314 14.9153 6.19608L11.7883 17.051C11.6906 17.4588 11.6254 17.7725 11.5603 18.0235C11.5277 18.2431 11.4951 18.4314 11.4951 18.5882C11.4951 18.9647 11.658 19.2471 11.9511 19.3726C12.2443 19.498 12.6678 19.5922 13.2541 19.6235V20H7V19.6235Z" fill="black"/>
</svg>

<svg xmlns="http://www.w3.org/2000/svg" width="24" height="24" viewBox="0 0 24 24"><path d="M7 19.623c.586-.062.977-.156 1.205-.313.359-.251.652-.753.88-1.506l3.127-10.855c.097-.439.195-.753.228-.941.032-.188.065-.345.065-.533 0-.377-.13-.659-.391-.816-.293-.157-.749-.251-1.433-.283V4H17v.376c-.651.095-1.107.22-1.368.408-.261.189-.489.659-.717 1.412l-3.127 10.855c-.097.408-.163.722-.228.972-.032.22-.065.408-.065.565 0 .377.163.659.456.785.293.125.717.219 1.303.25V20H7v-.377Z"/></svg>
